svgs/sharp-solid/arrow-down-left-and-arrow-up-right-to-center.svg

<svg xmlns="http://www.w3.org/2000/svg" viewBox="0 0 512 512"><!--! Font Awesome Pro 6.6.0 by @fontawesome - https://fontawesome.com License - https://fontawesome.com/license (Commercial License) Copyright 2024 Fonticons, Inc. --><path d="M381.3 176L502.6 54.6 457.4 9.4 336 130.7 336 80l0-32-64 0 0 32 0 128 0 32 32 0 128 0 32 0 0-64-32 0-50.7 0zM80 272l-32 0 0 64 32 0 50.7 0L9.4 457.4l45.3 45.3L176 381.3l0 50.7 0 32 64 0 0-32 0-128 0-32-32 0L80 272z"/></svg>

<svg xmlns="http://www.w3.org/2000/svg" viewBox="0 0 512 512"><!--! Font Awesome Pro 6.4.2 by @fontawesome - https://fontawesome.com License - https://fontawesome.com/license (Commercial License) Copyright 2023 Fonticons, Inc. --><path d="M381.3 176L502.6 54.6 457.4 9.4 336 130.7V80 48H272V80 208v32h32H432h32V176H432 381.3zM80 272H48v64H80h50.7L9.4 457.4l45.3 45.3L176 381.3V432v32h64V432 304 272H208 80z"/></svg>
